images/svg/customer-two.svg

<svg width="122" height="12" viewBox="0 0 122 12" fill="none" xmlns="http://www.w3.org/2000/svg">
<g clip-path="url(#clip0_1_382)">
<path d="M12.3373 4.08003C12.3373 2.08976 11.007 0.281946 8.48496 0.267266C6.78796 0.267266 1.69699 0.250488 0 0.250488V11.7706H2.01884V7.92635H7.35948L10.4804 11.7706H12.8796V11.6238L9.63774 7.69566C11.6722 7.25104 12.3451 5.65715 12.3451 4.08003H12.3373ZM2.02664 5.96754V2.2869H8.49276C9.76062 2.2869 10.3263 3.20758 10.3263 4.12827C10.3263 5.04895 9.77623 5.96963 8.49276 5.96963L2.02664 5.96754Z" fill="#131416"/>
<path d="M26.3229 0.254683C24.6415 0.254683 19.5661 0.271461 17.8847 0.271461V11.7748H19.9016V8.38564H26.3229C31.566 8.38564 31.5504 0.250488 26.3229 0.250488V0.254683ZM26.3229 6.39747H19.9016V2.32045H26.3229C28.8898 2.32045 28.9054 6.39747 26.3229 6.39747Z" fill="#131416"/>
<path d="M63.1982 5.82314C64.1911 5.34497 64.589 4.4914 64.589 3.60218C64.589 1.29522 63.0149 0.267578 60.9044 0.267578H52.435V11.7709H60.9044C63.1202 11.7709 64.9089 10.9509 64.9089 8.38596C64.9089 7.66241 64.4505 6.2321 63.1982 5.82314ZM54.4207 2.23898H60.9024C62.1878 2.23898 62.5838 3.1261 62.5838 3.65251C62.5838 4.30894 62.1722 4.88568 60.9024 4.88568H54.4227L54.4207 2.23898ZM60.9024 9.75126H54.4227V6.79206H60.9044C61.7295 6.79206 62.9076 7.33315 62.9076 8.36918C62.9076 9.45345 61.7373 9.75126 60.9044 9.75126" fill="#131416"/>
<path d="M71.7554 0.267578H69.7366V11.773H80.652V9.76593H71.7554V0.267578Z" fill="#131416"/>
<path d="M87.4985 0.267578H85.4953V11.773H87.4985V0.267578Z" fill="#131416"/>
<path d="M102.625 8.59344C102.336 8.90217 102.008 9.16489 101.65 9.37361C101.247 9.60346 100.819 9.77819 100.376 9.89372C99.8728 10.0234 99.3566 10.0868 98.8391 10.0825C98.1603 10.0945 97.4845 9.98387 96.8397 9.7553C96.3067 9.56238 95.8138 9.25963 95.3885 8.86397C95.0072 8.5016 94.7049 8.05336 94.503 7.55111C94.306 7.06113 94.2044 6.53295 94.2045 5.99915C94.2034 5.45983 94.305 4.92597 94.503 4.43042C94.7049 3.92818 95.0072 3.47993 95.3885 3.11755C95.814 2.72189 96.3087 2.42169 96.8436 2.23462C97.4886 2.01084 98.1634 1.90313 98.841 1.91584C99.3344 1.91336 99.8265 1.97106 100.308 2.08781C100.735 2.19088 101.15 2.34567 101.545 2.5492C101.9 2.73335 102.229 2.97291 102.52 3.26017C102.695 3.43676 102.854 3.63133 102.994 3.8411L104.695 2.83023C104.479 2.49485 104.231 2.18547 103.953 1.90745C103.56 1.51252 103.12 1.17542 102.645 0.904974C102.116 0.606781 101.553 0.382651 100.971 0.238052C100.307 0.0751899 99.6275 -0.00433789 98.9463 0.00106343C97.9688 -0.0150005 96.9961 0.151038 96.0712 0.491819C95.2944 0.779519 94.576 1.22445 93.9548 1.80259C93.4003 2.32673 92.9561 2.97195 92.6518 3.69523C92.3475 4.4185 92.1901 5.20322 92.1901 5.99706C92.1901 6.79089 92.3475 7.57561 92.6518 8.29889C92.9561 9.02217 93.4003 9.66738 93.9548 10.1915C94.5754 10.7706 95.294 11.2156 96.0712 11.5023C96.992 11.8438 97.9607 12.0119 98.9346 11.9993C99.6373 12.0055 100.338 11.9203 101.022 11.7456C101.617 11.591 102.191 11.3534 102.728 11.0388C103.213 10.7574 103.658 10.4044 104.051 9.99019C104.336 9.68635 104.588 9.3478 104.8 8.98142L103.091 7.97475C102.958 8.20232 102.802 8.41333 102.625 8.60392" fill="#131416"/>
<path d="M43.9033 0.254884C43.6764 0.254608 43.4517 0.302412 43.2421 0.395564C43.0324 0.488716 42.8419 0.625387 42.6814 0.797765C42.5208 0.970142 42.3935 1.17484 42.3066 1.40017C42.2198 1.62549 42.1751 1.86702 42.1751 2.11093H45.3954V6.08099C45.3356 6.60855 45.2271 7.12842 45.0716 7.63294C44.8697 8.13518 44.5674 8.58343 44.1861 8.9458C43.7604 9.34191 43.2667 9.6447 42.7329 9.83713C41.6679 10.2907 40.482 10.2907 39.417 9.83713C38.8832 9.6447 38.3895 9.34191 37.9638 8.9458C37.5825 8.58343 37.2801 8.13518 37.0782 7.63294C36.9228 7.12842 36.8143 6.60855 36.7544 6.08099V0.254884H34.761V6.08099C34.7563 6.87467 34.9106 7.66013 35.2136 8.38393C35.5165 9.10772 35.9609 9.75285 36.5165 10.2754C37.1381 10.8524 37.8573 11.2953 38.6348 11.5799C40.2195 12.1331 41.9264 12.1331 43.5112 11.5799C44.2884 11.2932 45.007 10.8482 45.6276 10.2691C46.1832 9.74656 46.6275 9.10142 46.9305 8.37763C47.2334 7.65384 47.3878 6.86838 47.3831 6.0747V0.254884H43.9033Z" fill="#131416"/>
<path d="M114.502 2.16138L109.789 11.7709H107.782L113.384 0.338883V0.267578H116.361L122 11.7709H119.993L118.795 9.3381H115.204C114.971 9.3381 114.74 9.28868 114.524 9.19267C114.309 9.09665 114.113 8.95592 113.948 8.77851C113.783 8.6011 113.652 8.39047 113.563 8.15867C113.473 7.92687 113.427 7.67843 113.427 7.42753H117.855L115.267 2.16138H114.502Z" fill="#131416"/>
</g>
<defs>
<clipPath id="clip0_1_382">
<rect width="122" height="12" fill="white"/>
</clipPath>
</defs>
</svg>

<svg width="122" height="12" fill="none" xmlns="http://www.w3.org/2000/svg"><g clip-path="url(#a)" fill="#131416"><path d="M12.337 4.08c0-1.99-1.33-3.798-3.852-3.813C6.788.267 1.697.25 0 .25v11.52h2.019V7.927h5.34l3.121 3.845h2.4v-.147L9.638 7.696c2.034-.445 2.707-2.039 2.707-3.616h-.008ZM2.027 5.968V2.287h6.466c1.268 0 1.833.92 1.833 1.841 0 .92-.55 1.842-1.833 1.842l-6.466-.002ZM26.323.255c-1.681 0-6.757.016-8.438.016v11.504h2.017v-3.39h6.42c5.244 0 5.228-8.135 0-8.135v.005Zm0 6.142h-6.421V2.32h6.42c2.568 0 2.583 4.077 0 4.077ZM63.198 5.823c.993-.478 1.391-1.332 1.391-2.22 0-2.308-1.574-3.335-3.685-3.335h-8.469V11.77h8.47c2.215 0 4.004-.82 4.004-3.385 0-.724-.459-2.154-1.71-2.563ZM54.421 2.24h6.481c1.286 0 1.682.887 1.682 1.414 0 .656-.412 1.233-1.682 1.233h-6.48l-.001-2.647Zm6.481 7.512h-6.48V6.792h6.482c.825 0 2.004.541 2.004 1.577 0 1.084-1.17 1.382-2.004 1.382M71.755.268h-2.018v11.505h10.915V9.766h-8.897V.268ZM87.499.268h-2.004v11.505H87.5V.268ZM102.625 8.593a4.311 4.311 0 0 1-.975.78 5.24 5.24 0 0 1-1.274.52c-.503.13-1.02.194-1.537.19a5.678 5.678 0 0 1-2-.328 4.262 4.262 0 0 1-1.45-.891 3.726 3.726 0 0 1-.886-1.313A4.163 4.163 0 0 1 94.204 6a4.21 4.21 0 0 1 .299-1.569c.202-.502.504-.95.885-1.312.426-.396.92-.696 1.456-.883a5.759 5.759 0 0 1 1.997-.32c.493-.002.986.056 1.467.173.427.103.842.258 1.237.461.355.184.684.424.975.711.175.177.334.371.474.581l1.701-1.01a5.562 5.562 0 0 0-.742-.924 6.116 6.116 0 0 0-1.308-1.002 6.7 6.7 0 0 0-1.674-.667 8.222 8.222 0 0 0-2.025-.237 7.931 7.931 0 0 0-2.875.49 6.343 6.343 0 0 0-2.116 1.312 5.577 5.577 0 0 0-1.303 1.892 5.942 5.942 0 0 0-.462 2.302c0 .794.157 1.579.462 2.302a5.576 5.576 0 0 0 1.303 1.893c.62.579 1.339 1.024 2.116 1.31.921.342 1.89.51 2.864.497a8.14 8.14 0 0 0 2.087-.253 6.717 6.717 0 0 0 1.706-.707c.485-.282.93-.635 1.323-1.049.285-.304.537-.642.749-1.009l-1.709-1.006a3.573 3.573 0 0 1-.466.629M43.903.255c-.227 0-.451.047-.66.14-.21.094-.401.23-.562.403a1.87 1.87 0 0 0-.374.602 1.98 1.98 0 0 0-.132.71h3.22v3.971a8.534 8.534 0 0 1-.323 1.552c-.202.502-.505.95-.886 1.313-.426.396-.92.699-1.453.891a4.21 4.21 0 0 1-3.316 0 4.252 4.252 0 0 1-1.453-.891 3.726 3.726 0 0 1-.886-1.313 8.55 8.55 0 0 1-.324-1.552V.255h-1.993V6.08a5.88 5.88 0 0 0 .453 2.303 5.517 5.517 0 0 0 1.303 1.891 6.3 6.3 0 0 0 2.118 1.305 7.372 7.372 0 0 0 4.876 0 6.302 6.302 0 0 0 2.117-1.31c.555-.523 1-1.169 1.303-1.892.302-.724.457-1.51.452-2.303V.255h-3.48ZM114.502 2.161l-4.713 9.61h-2.007L113.384.339V.268h2.977L122 11.77h-2.007l-1.198-2.433h-3.591c-.233 0-.464-.05-.68-.145a1.779 1.779 0 0 1-.576-.414 1.92 1.92 0 0 1-.385-.62 2.022 2.022 0 0 1-.136-.731h4.428l-2.588-5.267h-.765Z"/></g><defs><clipPath id="a"><path fill="#fff" d="M0 0h122v12H0z"/></clipPath></defs></svg>
